X:1
T:Morning
C:Clare Fischer
L:1/8
M:C
I:linebreak $
K:Db
z FcdS |:"Cø" ef z2"F7" z4 |"Bbm" z4"Eb7" z Fcd |"Cø" ef z2"F7" a2 g2 |$
"Bbm" f4"Eb7" z Fcf |"Ebm" ef z2"Ab7" z2 FA |"Db" cedB"Gb" z2 cd |"Cø" e4"F7" d4 ||1$
"Bbm" B4"Eb7" z Fcd :|2"Bbm""_Fine" B8 |]"Ebm" B2 B2 z B3 | B3 c fedc |$"Db6" B2 B2 z B3 |
B3 c fedc |"Ebm" B2 B2 z B3 |$ B3 c defg |"F+" f4 z2 e2 | d4 z Fc"_D.S. al 2nd end."d ||


